; generated by Slic3r 0.9.10b on 2013-10-12 at 14:10:47

; layer_height = 0.4
; perimeters = 2
; top_solid_layers = 0
; bottom_solid_layers = 0
; fill_density = 0
; perimeter_speed = 20
; infill_speed = 20
; travel_speed = 60
; nozzle_diameter = 1
; filament_diameter = 2.95
; extrusion_multiplier = 1
; perimeters extrusion width = 1.70mm
; infill extrusion width = 2.05mm
; solid infill extrusion width = 1.70mm
; top infill extrusion width = 1.70mm

G21 ; set units to millimeters
M107
G21           ;metric is good!
G90           ;absolute positioning
G90 ; use absolute coordinates
G92 E0
M82 ; use absolute distances for extrusion
G1 F2400.000 E-0.50000
G92 E0
G1 Z0.400 F3600.000
G1 X312.350 Y446.070
G1 F2400.000 E0.62000
G1 X313.090 Y445.620 F480.000 E0.70181
G1 X314.230 Y445.210 E0.81626
G1 X315.430 Y445.070 E0.93039
G1 X384.600 Y445.100 E7.46455
G1 X385.960 Y445.280 E7.59415
G1 X387.220 Y445.800 E7.72291
G1 X388.300 Y446.640 E7.85216
G1 X397.600 Y455.950 E9.09525
G1 X398.250 Y456.740 E9.19189
G1 X398.730 Y457.640 E9.28825
G1 X410.320 Y485.650 E12.15179
G1 X410.620 Y486.630 E12.24861
G1 X410.720 Y487.650 E12.34543
G1 X410.720 Y500.810 E13.58859
G1 X410.620 Y501.830 E13.68541
G1 X410.320 Y502.810 E13.78222
G1 X398.700 Y530.810 E16.64598
G1 X398.220 Y531.720 E16.74317
G1 X397.560 Y532.510 E16.84041
G1 X388.250 Y541.810 E18.08351
G1 X387.460 Y542.460 E18.18015
G1 X386.560 Y542.940 E18.27650
G1 X358.550 Y554.530 E21.14004
G1 X357.570 Y554.830 E21.23686
G1 X356.550 Y554.930 E21.33368
G1 X343.390 Y554.930 E22.57684
G1 X342.370 Y554.830 E22.67366
G1 X341.390 Y554.530 E22.77047
G1 X313.390 Y542.910 E25.63423
G1 X312.480 Y542.430 E25.73142
G1 X311.690 Y541.770 E25.82866
G1 X302.390 Y532.460 E27.07176
G1 X301.740 Y531.670 E27.16840
G1 X301.260 Y530.770 E27.26475
G1 X289.680 Y502.760 E30.12794
G1 X289.380 Y501.780 E30.22475
G1 X289.280 Y500.760 E30.32157
G1 X289.280 Y487.600 E31.56473
G1 X289.380 Y486.580 E31.66155
G1 X289.680 Y485.600 E31.75837
G1 X301.290 Y457.610 E34.62089
G1 X301.770 Y456.710 E34.71724
G1 X302.420 Y455.920 E34.81388
G1 X311.710 Y446.620 E36.05564
G1 X312.166 Y446.228 E36.11248
G1 F2400.000 E35.61248
G92 E0
G1 X313.300 Y447.380 F3600.000
G1 F2400.000 E0.62000
G1 X313.810 Y447.070 F480.000 E0.67638
G1 X314.600 Y446.780 E0.75588
G1 X315.430 Y446.690 E0.83474
G1 X384.600 Y446.720 E7.36891
G1 X385.540 Y446.840 E7.45843
G1 X386.410 Y447.200 E7.54737
G1 X387.160 Y447.780 E7.63693
G1 X396.460 Y457.090 E8.88003
G1 X396.910 Y457.630 E8.94643
G1 X397.240 Y458.260 E9.01361
G1 X408.830 Y486.270 E11.87716
G1 X409.030 Y486.950 E11.94411
G1 X409.100 Y487.650 E12.01057
G1 X409.100 Y500.810 E13.25373
G1 X409.030 Y501.520 E13.32113
G1 X408.830 Y502.200 E13.38809
G1 X397.210 Y530.200 E16.25184
G1 X396.870 Y530.820 E16.31864
G1 X396.420 Y531.370 E16.38577
G1 X387.110 Y540.670 E17.62886
G1 X386.570 Y541.120 E17.69526
G1 X385.940 Y541.450 E17.76245
G1 X357.930 Y553.040 E20.62599
G1 X357.250 Y553.240 E20.69295
G1 X356.550 Y553.310 E20.75940
G1 X343.390 Y553.310 E22.00257
G1 X342.680 Y553.240 E22.06996
G1 X342.000 Y553.040 E22.13692
G1 X314.000 Y541.420 E25.00068
G1 X313.380 Y541.080 E25.06747
G1 X312.830 Y540.630 E25.13460
G1 X303.530 Y531.320 E26.37770
G1 X303.080 Y530.780 E26.44410
G1 X302.750 Y530.150 E26.51128
G1 X291.170 Y502.140 E29.37446
G1 X290.970 Y501.460 E29.44142
G1 X290.900 Y500.760 E29.50788
G1 X290.900 Y487.600 E30.75104
G1 X290.970 Y486.890 E30.81844
G1 X291.170 Y486.220 E30.88449
G1 X302.780 Y458.230 E33.74701
G1 X303.110 Y457.600 E33.81419
G1 X303.560 Y457.060 E33.88059
G1 X312.850 Y447.760 E35.12235
G1 X313.115 Y447.536 E35.15512
G1 F2400.000 E34.65512
G92 E0
G1 X315.741 Y453.419 F3600.000
G1 F2400.000 E0.62000
G1 X328.283 Y461.815 F480.000 E2.04576
G1 X331.193 Y460.125 E2.36364
G1 X333.912 Y458.726 E2.65250
G1 X338.641 Y478.282 E4.55315
G1 X338.138 Y478.641 E4.61146
G1 X337.300 Y479.311 E4.71282
G1 X336.419 Y480.105 E4.82487
G1 X335.606 Y480.930 E4.93428
G1 X334.907 Y481.727 E5.03442
G1 X334.129 Y482.719 E5.15350
G1 X333.470 Y483.679 E5.26351
G1 X332.799 Y484.805 E5.38732
G1 X332.299 Y485.767 E5.48975
G1 X331.837 Y486.799 E5.59655
G1 X331.433 Y487.865 E5.70426
G1 X331.075 Y489.007 E5.81725
G1 X330.762 Y490.302 E5.94313
G1 X330.571 Y491.364 E6.04504
G1 X330.444 Y492.411 E6.14470
G1 X330.362 Y493.685 E6.26532
G1 X330.360 Y494.849 E6.37530
G1 X330.415 Y495.870 E6.47189
G1 X330.560 Y497.176 E6.59598
G1 X330.765 Y498.333 E6.70699
G1 X331.038 Y499.471 E6.81753
G1 X331.378 Y500.587 E6.92772
G1 X331.742 Y501.576 E7.02733
G1 X332.266 Y502.778 E7.15122
G1 X332.810 Y503.832 E7.26323
G1 X333.399 Y504.824 E7.37216
G1 X334.046 Y505.782 E7.48137
G1 X334.668 Y506.598 E7.57828
G1 X335.518 Y507.591 E7.70176
G1 X336.376 Y508.470 E7.81779
G1 X337.230 Y509.245 E7.92676
G1 X338.127 Y509.970 E8.03572
G1 X339.187 Y510.720 E8.15839
G1 X340.101 Y511.291 E8.26020
G1 X340.978 Y511.773 E8.35467
G1 X342.154 Y512.335 E8.47786
G1 X343.363 Y512.814 E8.60066
G1 X344.376 Y513.149 E8.70146
G1 X345.489 Y513.446 E8.81033
G1 X346.611 Y513.676 E8.91853
G1 X347.934 Y513.860 E9.04466
G1 X349.001 Y513.945 E9.14579
G1 X350.049 Y513.969 E9.24487
G1 X351.338 Y513.927 E9.36669
G1 X352.495 Y513.816 E9.47648
G1 X353.547 Y513.653 E9.57698
G1 X354.804 Y513.383 E9.69848
G1 X356.029 Y513.033 E9.81881
G1 X357.025 Y512.685 E9.91852
G1 X358.098 Y512.239 E10.02822
G1 X359.160 Y511.720 E10.13990
G1 X360.073 Y511.206 E10.23887
G1 X361.167 Y510.506 E10.36153
G1 X362.123 Y509.803 E10.47368
G1 X362.905 Y509.157 E10.56948
G1 X363.864 Y508.269 E10.69294
G1 X364.697 Y507.390 E10.80733
G1 X365.503 Y506.425 E10.92613
G1 X366.151 Y505.552 E11.02886
G1 X366.773 Y504.603 E11.13603
G1 X367.353 Y503.597 E11.24571
G1 X367.869 Y502.564 E11.35483
G1 X368.299 Y501.560 E11.45796
G1 X368.739 Y500.340 E11.58049
G1 X369.069 Y499.195 E11.69301
G1 X369.321 Y498.076 E11.80137
G1 X369.502 Y496.978 E11.90653
G1 X369.628 Y495.782 E12.02015
G1 X369.680 Y494.591 E12.13270
G1 X369.664 Y493.485 E12.23720
G1 X369.579 Y492.279 E12.35146
G1 X369.424 Y491.110 E12.46282
G1 X369.166 Y489.821 E12.58702
G1 X368.891 Y488.768 E12.68982
G1 X368.527 Y487.653 E12.80057
G1 X368.084 Y486.530 E12.91465
G1 X367.334 Y484.921 E13.08234
G1 X367.300 Y484.921 E13.08556
G1 X367.017 Y484.420 E13.13990
G1 X366.434 Y483.479 E13.24448
G1 X365.755 Y482.517 E13.35574
G1 X365.015 Y481.589 E13.46783
G1 X364.255 Y480.744 E13.57522
G1 X363.484 Y479.981 E13.67768
G1 X362.519 Y479.129 E13.79928
G1 X361.232 Y478.131 E13.95311
G1 X365.935 Y458.682 E15.84331
G1 X367.021 Y459.175 E15.95606
G1 X368.827 Y460.115 E16.14835
G1 X371.781 Y461.832 E16.47114
G1 X384.295 Y453.457 E17.89354
G1 X390.790 Y459.952 E18.76123
G1 X382.422 Y472.455 E20.18242
G1 X383.965 Y475.061 E20.46846
G1 X384.660 Y476.350 E20.60681
G1 X385.471 Y477.989 E20.77958
G1 X386.055 Y479.317 E20.91663
G1 X386.609 Y480.721 E21.05925
G1 X387.141 Y482.250 E21.21218
G1 X387.626 Y483.866 E21.37156
G1 X388.368 Y486.729 E21.65095
G1 X403.069 Y489.642 E23.06666
G1 X403.069 Y498.828 E23.93439
G1 X388.388 Y501.735 E25.34821
G1 X387.623 Y504.714 E25.63876
G1 X387.196 Y506.134 E25.77878
G1 X386.654 Y507.742 E25.93913
G1 X386.064 Y509.258 E26.09276
G1 X385.449 Y510.665 E26.23780
G1 X384.806 Y511.988 E26.37677
G1 X383.978 Y513.526 E26.54182
G1 X382.457 Y516.106 E26.82475
G1 X390.755 Y528.506 E28.23418
G1 X384.260 Y535.001 E29.10187
G1 X371.873 Y526.710 E30.50993
G1 X369.254 Y528.258 E30.79734
G1 X367.951 Y528.958 E30.93707
G1 X366.294 Y529.774 E31.11159
G1 X364.951 Y530.361 E31.24998
G1 X363.529 Y530.917 E31.39424
G1 X361.983 Y531.449 E31.54866
G1 X360.347 Y531.934 E31.70984
G1 X357.461 Y532.672 E31.99127
G1 X354.567 Y547.279 E33.39796
G1 X345.382 Y547.279 E34.26569
G1 X342.485 Y532.657 E35.67380
G1 X339.509 Y531.885 E35.96428
G1 X338.087 Y531.453 E36.10465
G1 X336.476 Y530.905 E36.26540
G1 X334.958 Y530.308 E36.41941
G1 X333.550 Y529.686 E36.56482
G1 X332.226 Y529.038 E36.70417
G1 X330.686 Y528.202 E36.86967
G1 X328.103 Y526.668 E37.15349
G1 X315.704 Y534.965 E38.56280
G1 X309.209 Y528.470 E39.43049
G1 X317.529 Y516.040 E40.84347
G1 X315.999 Y513.429 E41.12930
G1 X315.308 Y512.133 E41.26804
G1 X314.503 Y510.485 E41.44137
G1 X313.924 Y509.150 E41.57883
G1 X313.376 Y507.735 E41.72211
G1 X312.851 Y506.199 E41.87552
G1 X312.372 Y504.573 E42.03563
G1 X311.641 Y501.692 E42.31638
G1 X296.931 Y498.777 E43.73296
G1 X296.931 Y489.591 E44.60070
G1 X311.674 Y486.671 E46.02045
G1 X312.448 Y483.720 E46.30868
G1 X312.878 Y482.317 E46.44729
G1 X313.424 Y480.727 E46.60602
G1 X314.016 Y479.228 E46.75834
G1 X314.633 Y477.838 E46.90200
G1 X315.282 Y476.516 E47.04116
G1 X316.103 Y475.006 E47.20345
G1 X317.627 Y472.437 E47.48565
G1 X309.246 Y459.916 E48.90903
G1 X315.570 Y453.590 E49.75403
G1 X314.418 Y452.459 F3600.000
G1 X315.537 Y451.340 F480.000 E49.90355
G1 X328.343 Y459.913 E51.35938
G1 X330.416 Y458.710 E51.58576
G1 X332.333 Y457.716 E51.78978
G1 X333.346 Y457.279 E51.89399
G1 X334.553 Y456.727 E52.01934
G1 X335.042 Y456.531 E52.06908
G1 X340.473 Y478.994 E54.25218
G1 X340.108 Y479.223 E54.29292
G1 X339.111 Y479.929 E54.40834
G1 X338.336 Y480.549 E54.50205
G1 X337.494 Y481.312 E54.60946
G1 X336.789 Y482.029 E54.70442
G1 X336.087 Y482.831 E54.80508
G1 X335.426 Y483.681 E54.90679
G1 X334.870 Y484.490 E54.99955
G1 X334.256 Y485.504 E55.11155
G1 X333.758 Y486.460 E55.21335
G1 X333.325 Y487.426 E55.31337
G1 X332.958 Y488.394 E55.41110
G1 X332.653 Y489.366 E55.50737
G1 X332.361 Y490.536 E55.62133
G1 X332.168 Y491.604 E55.72380
G1 X332.041 Y492.656 E55.82396
G1 X331.974 Y493.806 E55.93272
G1 X331.973 Y494.807 E56.02732
G1 X332.026 Y495.770 E56.11839
G1 X332.160 Y496.954 E56.23096
G1 X332.344 Y497.992 E56.33058
G1 X332.617 Y499.121 E56.44027
G1 X332.907 Y500.071 E56.53415
G1 X333.252 Y501.005 E56.62817
G1 X333.728 Y502.093 E56.74033
G1 X334.251 Y503.099 E56.84745
G1 X334.756 Y503.950 E56.94091
G1 X335.363 Y504.848 E57.04334
G1 X335.982 Y505.657 E57.13959
G1 X336.762 Y506.557 E57.25206
G1 X337.496 Y507.307 E57.35121
G1 X338.236 Y507.981 E57.44577
G1 X339.094 Y508.678 E57.55017
G1 X340.053 Y509.358 E57.66125
G1 X340.917 Y509.898 E57.75744
G1 X341.744 Y510.352 E57.84655
G1 X342.811 Y510.860 E57.95821
G1 X343.883 Y511.286 E58.06716
G1 X344.827 Y511.599 E58.16117
G1 X345.871 Y511.878 E58.26320
G1 X346.877 Y512.084 E58.36018
G1 X348.075 Y512.252 E58.47452
G1 X349.083 Y512.332 E58.57006
G1 X350.074 Y512.355 E58.66366
G1 X351.243 Y512.315 E58.77413
G1 X352.293 Y512.214 E58.87384
G1 X353.286 Y512.060 E58.96874
G1 X354.402 Y511.820 E59.07652
G1 X355.510 Y511.504 E59.18537
G1 X356.439 Y511.180 E59.27834
G1 X357.444 Y510.762 E59.38112
G1 X358.408 Y510.291 E59.48256
G1 X359.270 Y509.806 E59.57599
G1 X360.260 Y509.171 E59.68707
G1 X361.129 Y508.531 E59.78901
G1 X361.867 Y507.921 E59.87942
G1 X362.735 Y507.115 E59.99139
G1 X363.531 Y506.271 E60.10092
G1 X364.180 Y505.498 E60.19626
G1 X364.783 Y504.689 E60.29166
G1 X365.437 Y503.693 E60.40412
G1 X365.925 Y502.843 E60.49674
G1 X366.409 Y501.875 E60.59897
G1 X366.834 Y500.877 E60.70144
G1 X367.224 Y499.772 E60.81220
G1 X367.502 Y498.806 E60.90715
G1 X367.738 Y497.757 E61.00869
G1 X367.902 Y496.761 E61.10403
G1 X368.017 Y495.673 E61.20736
G1 X368.066 Y494.558 E61.31284
G1 X368.050 Y493.524 E61.41049
G1 X367.973 Y492.444 E61.51279
G1 X367.842 Y491.447 E61.60775
G1 X367.617 Y490.279 E61.72014
G1 X367.345 Y489.233 E61.82223
G1 X367.004 Y488.189 E61.92596
G1 X366.605 Y487.179 E62.02854
G1 X366.154 Y486.212 E62.12940
G1 X365.668 Y485.309 E62.22627
G1 X365.093 Y484.379 E62.32951
G1 X364.457 Y483.477 E62.43381
G1 X363.832 Y482.692 E62.52859
G1 X363.033 Y481.805 E62.64136
G1 X362.316 Y481.098 E62.73651
G1 X361.550 Y480.425 E62.83281
G1 X360.580 Y479.672 E62.94877
G1 X359.384 Y478.906 E63.08296
G1 X364.812 Y456.458 E65.26466
G1 X365.818 Y456.855 E65.36684
G1 X367.737 Y457.727 E65.56595
G1 X369.604 Y458.699 E65.76484
G1 X371.721 Y459.930 E65.99615
G1 X384.499 Y451.378 E67.44858
G1 X392.745 Y459.624 E68.55023
G1 X392.951 Y459.624 E68.56972
G1 X384.329 Y472.508 E70.03414
G1 X385.370 Y474.266 E70.22718
G1 X386.096 Y475.612 E70.37165
G1 X386.922 Y477.280 E70.54747
G1 X387.545 Y478.695 E70.69356
G1 X388.123 Y480.160 E70.84226
G1 X388.682 Y481.766 E71.00294
G1 X389.180 Y483.430 E71.16703
G1 X389.676 Y485.343 E71.35369
G1 X404.683 Y488.317 E72.79887
G1 X404.683 Y500.154 E73.91708
G1 X389.698 Y503.121 E75.36011
G1 X389.178 Y505.147 E75.55773
G1 X388.733 Y506.629 E75.70384
G1 X388.182 Y508.268 E75.86717
G1 X387.556 Y509.875 E76.03011
G1 X386.915 Y511.341 E76.18129
G1 X386.242 Y512.726 E76.32673
G1 X385.385 Y514.318 E76.49756
G1 X384.363 Y516.052 E76.68769
G1 X392.834 Y528.710 E78.12648
G1 X384.464 Y537.080 E79.24464
G1 X371.820 Y528.616 E80.68196
G1 X370.047 Y529.664 E80.87649
G1 X368.686 Y530.395 E81.02244
G1 X367.000 Y531.227 E81.20001
G1 X365.568 Y531.853 E81.34760
G1 X364.086 Y532.432 E81.49795
G1 X362.463 Y532.991 E81.66014
G1 X360.778 Y533.490 E81.82610
G1 X358.847 Y533.983 E82.01443
G1 X355.893 Y548.893 E83.45023
G1 X344.056 Y548.893 E84.56844
G1 X341.099 Y533.965 E86.00603
G1 X339.071 Y533.439 E86.20390
G1 X337.587 Y532.988 E86.35038
G1 X335.946 Y532.431 E86.51412
G1 X334.337 Y531.798 E86.67747
G1 X332.869 Y531.150 E86.82903
G1 X331.483 Y530.471 E86.97485
G1 X329.889 Y529.607 E87.14612
G1 X328.154 Y528.576 E87.33680
G1 X315.500 Y537.044 E88.77512
G1 X307.130 Y528.674 E89.89328
G1 X315.625 Y515.983 E91.33589
G1 X314.590 Y514.218 E91.52921
G1 X313.868 Y512.864 E91.67415
G1 X313.048 Y511.187 E91.85050
G1 X312.431 Y509.763 E91.99711
G1 X311.859 Y508.289 E92.14644
G1 X311.308 Y506.675 E92.30755
G1 X310.815 Y505.001 E92.47240
G1 X310.327 Y503.077 E92.65985
G1 X295.317 Y500.103 E94.10537
G1 X295.317 Y488.266 E95.22358
G1 X310.369 Y485.284 E96.67311
G1 X310.895 Y483.278 E96.86901
G1 X311.344 Y481.814 E97.01371
G1 X311.898 Y480.195 E97.17535
G1 X312.528 Y478.604 E97.33697
G1 X313.170 Y477.155 E97.48672
G1 X313.854 Y475.761 E97.63333
G1 X314.698 Y474.210 E97.80020
G1 X315.719 Y472.489 E97.98923
G1 X307.167 Y459.712 E99.44166
G1 X314.247 Y452.630 E100.38765
G1 X315.947 Y452.868 F3600.000
G1 F2400.000 E99.88765
G92 E0
G1 Z0.800 F3600.000
G1 X315.741 Y453.419
G1 F2400.000 E0.62000
G1 X328.283 Y461.815 F1200.000 E2.04576
G1 X330.981 Y460.248 E2.34057
G1 X333.914 Y458.734 E2.65228
G1 X338.643 Y478.292 E4.55307
G1 X338.009 Y478.744 E4.62665
G1 X337.300 Y479.311 E4.71238
G1 X336.419 Y480.105 E4.82442
G1 X335.606 Y480.930 E4.93384
G1 X334.959 Y481.665 E5.02633
G1 X334.129 Y482.719 E5.15305
G1 X333.470 Y483.679 E5.26306
G1 X332.761 Y484.877 E5.39455
G1 X332.299 Y485.767 E5.48929
G1 X331.837 Y486.799 E5.59609
G1 X331.433 Y487.865 E5.70381
G1 X331.075 Y489.007 E5.81679
G1 X330.746 Y490.382 E5.95043
G1 X330.571 Y491.363 E6.04456
G1 X330.452 Y492.331 E6.13661
G1 X330.362 Y493.685 E6.26484
G1 X330.360 Y494.849 E6.37483
G1 X330.409 Y495.793 E6.46409
G1 X330.560 Y497.176 E6.59551
G1 X330.765 Y498.333 E6.70652
G1 X331.038 Y499.471 E6.81706
G1 X331.377 Y500.587 E6.92724
G1 X331.713 Y501.501 E7.01926
G1 X332.266 Y502.778 E7.15074
G1 X332.810 Y503.832 E7.26276
G1 X333.399 Y504.824 E7.37168
G1 X334.046 Y505.782 E7.48090
G1 X334.621 Y506.537 E7.57056
G1 X335.518 Y507.591 E7.70128
G1 X336.376 Y508.470 E7.81730
G1 X337.230 Y509.245 E7.92628
G1 X338.127 Y509.970 E8.03524
G1 X339.256 Y510.765 E8.16569
G1 X340.101 Y511.291 E8.25971
G1 X340.910 Y511.737 E8.34698
G1 X342.154 Y512.335 E8.47737
G1 X343.438 Y512.840 E8.60770
G1 X344.376 Y513.149 E8.70095
G1 X345.489 Y513.446 E8.80983
G1 X346.611 Y513.676 E8.91803
G1 X348.015 Y513.868 E9.05187
G1 X349.001 Y513.945 E9.14529
G1 X349.969 Y513.969 E9.23677
G1 X351.338 Y513.927 E9.36618
G1 X352.495 Y513.816 E9.47598
G1 X353.467 Y513.667 E9.56882
G1 X354.804 Y513.383 E9.69797
G1 X356.104 Y513.008 E9.82577
G1 X357.025 Y512.685 E9.91801
G1 X358.097 Y512.239 E10.02770
G1 X359.160 Y511.720 E10.13938
G1 X360.004 Y511.247 E10.23081
G1 X361.167 Y510.506 E10.36100
G1 X362.123 Y509.803 E10.47316
G1 X362.846 Y509.207 E10.56165
G1 X363.864 Y508.269 E10.69242
G1 X364.697 Y507.390 E10.80680
G1 X365.553 Y506.360 E10.93331
G1 X366.151 Y505.552 E11.02834
